X:7512
T:Ich und mein Hans
R:
O:Alsace - Elsass
A:
S:
B:Chansons populaires de l'Alsace
Z:transcription (partition) : eric.forgeot@caramail.com
N:Weckerlin II - p. 183
N:
M:3/4
L:1/8
Q:1/4=130
K:A
     E F G | A2A2 e e | c2 z A G F | E2 (GB) (dG) |
A2 z E F G | A2A2 e e | c2 z A G F | E2 (GB) (dG) |
A2 z2 c>c | c2 c B A G | F2 z F G A | (Be B) A G F |
E2 z E F G | (Ac) c B A G | F z E E E | (E2 G) B d G | A2 z ||
